!!!OTL: 553. Lebensgenuss.
!!!ODT: 1801
!!!ARE: Europa, Mitteleuropa, Deutschland
!!!SCT: B0553
!!!TXL: @@DE
!!!YEM: Copyright 1995, estate of Helmut Schaffrath.
**kern	**text
*ICvox	*
*Ivox	*
*clefG2	*
*M6/8	*
*k[b-]	*
*F:	*
!LO:TX:a:t=*	!
!LO:TX:a:t=Mäßig. Einer.	!
{8c	Ge-
=1	=1
4f	-nießt
8f	den
4a	Reiʒ
8f	des
=2	=2
4.d	Lebens!
4b-}	.
{8a	Man
=3	=3
4g	lebt
8g	ja
8b-L	nur
8gJ	.
8e	ein-
=4	=4
4f	-mal.
8r	.
4r}	.
{8c	Er
=5	=5
4f	winkt
8f	uns
4a	nicht
8f	ver-
=6	=6
4.d	-ge-
4b-}	-bens
{8a	der
=7	=7
4g	blin-
8g	-ken-
8b-L	-de
8gJ	.
8e	Po-
=8	=8
(<4f	-kal,
8a	.
4cc)}	.
!LO:TX:a:t=Alle.	!
{8cc	er
=9	=9
4dd	winkt
8dd	uns
(8ff	nicht
8ee)	.
8dd	ver-
=10	=10
4.cc	-ge-
8a	-bens
8r}	.
{8a	der
=11	=11
(8gL	blin-
8b-J)	.
8a	-ken-
8gL	-de
8fJ	.
8e	Po-
=12	=12
4f	-kal.
8r	.
4r}	.
==	==
!!!AGN: Studenten -, Trink - Lied
!!!GTL: Studentenlieder
!!!ONB: ESAC (Essen Associative Code) Database: BOEHME
!!!AMT: compound duple
!!!AIN: vox
!!!EED: Helmut Schaffrath
!!!EEV: 1.0
!!!RDF**kern: < = below
!!Mel. 1801 (1843)
!!@@COMMENT:"Gedicht von Joh. Fr. Jünger 1780. - Melodie ʒuerſt in W. Schneiders Studentenlieder-
!!buch 1801, mit etwas anderem Eingang, ſo auch bei Methfeſſel 1818. Später ſo geſungen, wie
!!oben ſteht. Der Text iſt bier gekürʒt, wie Finks Hausſchatʒ 1843 ihn giebt."
!!@@END:
!!!Text: Joh. Fr. Jünger
!!!URL-scan:
!!!ENC: Anna Maria Matuszewska
!!!EEV: 2024/11/07
*-	*-
